Numix-Circle/48x48/apps/gromit.svg

<svg xmlns="http://www.w3.org/2000/svg" xmlns:xlink="http://www.w3.org/1999/xlink" width="48" viewBox="0 0 13.546667 13.546667" height="48">
 <defs>
  <linearGradient id="0">
   <stop stop-color="#83b029"/>
   <stop offset="1" stop-color="#b3da5b"/>
  </linearGradient>
  <clipPath>
   <rect width="20" x="1" y="1" rx="2" height="20" fill="#fff" fill-rule="evenodd"/>
  </clipPath>
  <clipPath>
   <rect width="84" x="6" y="6" rx="6" height="84" fill="#fff"/>
  </clipPath>
  <clipPath>
   <path d="M 54.1,12.5 12.9,54.7 C -2.7,70.3 23,69 32.3,74.9 36.6,77.7 18.5,81.3 22.2,85 c 3.6,3.7 21.7,7.1 25.3,10.7 3.6,3.7 -7.3,7.6 -3.7,11.3 3.5,3.7 11.9,0.2 13.4,8.6 1.1,6.2 15.4,3.1 21.8,-2.2 4,-3.4 -6.9,-3.4 -3.3,-7.1 9,-9.1 17,-4.1 20.3,-12.5 1.8,-4.5 -13.6,-7.7 -9.5,-10.6 9.8,-6.9 45.8,-10.4 29.2,-27 L 73,12.5 c -5.3,-5 -14,-5 -18.9,0 z m -9.9,64.7 c 0.9,0 30.8,4 19.3,7.1 -4.4,1.2 -24.6,-7.1 -19.3,-7.1 z m 57.2,16.6 c 0,2.1 16.3,3.3 15.4,-0.5 -1.3,-6.4 -13.6,-5.9 -15.4,0.5 z m -69.5,11.1 c 3.7,3.2 9.3,-0.7 11.1,-5.2 -3.6,-4.7 -16.9,0.3 -11.1,5.2 z m 67.5,-6.7 c -4.6,4.2 0.8,8.6 5.3,5.7 1.2,-0.8 -0.1,-4.7 -5.3,-5.7 z"/>
  </clipPath>
  <clipPath>
   <rect width="96" x="-100" height="96" fill="#fff"/>
  </clipPath>
  <clipPath>
   <path d="M 95.311,352.545 L 476.403,352.545 L 476.403,71.4229 L 95.311,71.4229 L 95.311,352.545 z"/>
  </clipPath>
  <clipPath>
   <path d="M 93.311,354.545 L 478.511,354.545 L 478.511,69.1846 L 93.311,69.1846 L 93.311,354.545 z"/>
  </clipPath>
  <clipPath>
   <path d="M 93.311,69.185 L 478.511,69.185 L 478.511,354.545 L 93.311,354.545 L 93.311,69.185 z"/>
  </clipPath>
  <clipPath>
   <path d="M 92.311,355.545 L 479.511,355.545 L 479.511,68.1846 L 92.311,68.1846 L 92.311,355.545 z"/>
  </clipPath>
  <linearGradient xlink:href="#0" id="1" y1="12.7" x2="0" y2="3.669" gradientUnits="userSpaceOnUse"/>
 </defs>
 <rect height="12.982" rx="6.491" y="0.283" x="0.282" width="12.982" opacity="0.5" fill="#ffffff" fill-rule="evenodd"/>
 <rect height="11.853" rx="5.927" y="0.847" x="0.847" width="11.853" fill="url(#1)" fill-rule="evenodd"/>
 <path d="M 6.105168,8.2150899 C 5.9593797,8.1537498 5.9177546,7.9369536 6.0989342,7.7508932 6.2801139,7.5647669 6.6841653,7.4093765 7.1236081,7.2150892 7.5631179,7.0208018 8.037952,6.7876833 8.3524526,6.7978847 8.6669531,6.8081519 8.9387179,7.1001845 8.9657977,7.4765176 8.9928774,7.8527848 8.905944,8.3517321 8.8039257,8.7075965 8.7018404,9.0634609 8.6892611,9.2375995 8.5497065,9.3009798 8.4101519,9.3643601 8.1567625,9.3940054 8.1650741,9.0586754 8.1733857,8.7232797 8.3127264,8.0485174 8.3585744,7.7581394 8.4044223,7.4677615 8.212898,7.4461674 8.0567202,7.4890791 7.9004754,7.5320566 7.6880601,7.6138653 7.4610326,7.7202231 7.234005,7.8265152 6.9924321,7.9574222 6.7466364,8.0699009 6.5009078,8.1823796 6.2509562,8.2764299 6.105168,8.2150899" fill="#d64937" stroke="#2d2d2d" stroke-width="0.213"/>
 <path d="M 6.7337669,4.7216749 C 6.2464653,5.1122241 5.817412,5.6071566 5.5008336,6.0795145 5.1842551,6.5519381 4.9801515,7.0018529 4.8592981,7.4067498 c -0.1207194,0.404897 -0.1582557,0.764842 -0.08325,1.1186661 0.074939,0.3537583 0.262419,0.7013958 0.587309,0.826182 0.32489,0.1247203 0.7872568,0.026589 1.174685,-0.1186654 C 6.925403,9.0877435 7.2378257,8.8954964 7.4502409,8.5847156 7.6627231,8.273869 7.7751309,7.8444229 7.9167634,7.6726444 8.0583959,7.5008002 8.2291861,7.5866894 8.2541879,7.8485035 8.2791898,8.1102517 8.1583363,8.547859 7.9730009,8.8771339 7.7876654,9.206343 7.5377139,9.4272199 7.2024343,9.6133461 6.8670877,9.7994065 6.4463461,9.9507822 6.0235935,10.014162 5.600774,10.077543 5.1759435,10.052994 4.8447528,9.887336 4.513629,9.7216784 4.2761449,9.4149782 4.1616592,8.9466351 4.0471065,8.4783578 4.0554181,7.8485035 4.1991285,7.2472789 4.3428389,6.6459885 4.621881,6.0733936 5.0884035,5.4905974 5.5549931,4.9077353 6.208929,4.3146718 6.7713031,3.9649941 7.3336103,3.6153163 7.8042886,3.5089585 8.1771045,3.4946107 8.5499203,3.4803287 8.8248737,3.5580568 9.0393668,3.6786966 9.253927,3.7993365 9.4080269,3.9629538 9.4392624,4.1061025 9.470498,4.2492512 9.3788692,4.3719313 9.1706098,4.3105913 8.9622833,4.2492512 8.6373933,4.0038252 8.2021063,4.0242938 7.7668193,4.0447625 7.2211354,4.3310599 6.7337669,4.7216749" fill="#d64937" fill-rule="evenodd" stroke="#2d2d2d" stroke-width="0.213"/>
 <path d="M 6.7337669,4.7216749 C 6.2464653,5.1122241 5.7389685,5.6071566 5.4223901,6.0795145 5.1058117,6.5519381 4.9147821,6.9633416 4.7939286,7.3682385 4.6732092,7.7731355 4.661821,8.210103 4.7368265,8.5639272 4.8117651,8.9176855 4.9861714,9.2909976 5.3110615,9.4157838 5.6359515,9.5405041 6.1767617,9.4295359 6.5641899,9.2842811 6.9515511,9.1390921 7.2378257,8.8954964 7.4502409,8.5847156 7.6627231,8.273869 7.6574661,7.8700975 7.7990985,7.6983191 7.940731,7.5264748 8.2291861,7.5866894 8.2541879,7.8485035 8.2791898,8.1102517 8.1583363,8.547859 7.9730009,8.8771339 7.7876654,9.206343 7.5377139,9.4272199 7.2024343,9.6133461 6.8670877,9.7994065 6.4463461,9.9507822 6.0235935,10.014162 5.600774,10.077543 5.254387,10.078668 4.9231962,9.9130107 4.5920725,9.747353 4.2630709,9.3251183 4.1485852,8.8567752 4.0340324,8.3884979 4.0161967,7.8998521 4.1599071,7.2986275 4.3036174,6.6973371 4.621881,6.0733936 5.0884035,5.4905974 5.5549931,4.9077353 6.208929,4.3146718 6.7713031,3.9649941 7.3336103,3.6153163 7.8042886,3.5089585 8.1771045,3.4946107 8.5499203,3.4803287 8.8248737,3.5580568 9.0393668,3.6786966 9.253927,3.7993365 9.4542501,3.9720311 9.4854857,4.1151798 9.5167212,4.2583285 9.3511352,4.4717807 9.1428758,4.4104406 8.9345494,4.3491006 8.6466379,4.0401343 8.211351,4.0606029 7.776064,4.0810716 7.2211354,4.3310599 6.7337669,4.7216749" fill="#d64937" stroke="#2d2d2d" stroke-width="0.213"/>
 <text x="3.431" y="8.523" font-family="Rufscript" font-style="italic" word-spacing="0" line-height="125%" letter-spacing="0" font-size="2.822"><tspan y="8.523" x="3.431"/>
 </text>
</svg>

<svg viewBox="0 0 48 48"><defs><linearGradient id="1" gradientUnits="userSpaceOnUse" y1="15" x2="0" y2="11" gradientTransform="matrix(15.333333,0,0,11.5,414.99999,-125.5)"><stop/><stop offset="1" stop-opacity="0"/></linearGradient><clipPath id="clipPath-168246905"><g transform="translate(0,-1004.3622)"><path d="m -24 13 c 0 1.105 -0.672 2 -1.5 2 -0.828 0 -1.5 -0.895 -1.5 -2 0 -1.105 0.672 -2 1.5 -2 0.828 0 1.5 0.895 1.5 2 z" transform="matrix(15.333333,0,0,11.5,414.99999,878.8622)" fill="#1890d0"/></g></clipPath><clipPath id="clipPath-181500946"><g transform="translate(0,-1004.3622)"><path d="m -24 13 c 0 1.105 -0.672 2 -1.5 2 -0.828 0 -1.5 -0.895 -1.5 -2 0 -1.105 0.672 -2 1.5 -2 0.828 0 1.5 0.895 1.5 2 z" transform="matrix(15.333333,0,0,11.5,414.99999,878.8622)" fill="#1890d0"/></g></clipPath></defs><g><g transform="translate(0,-1004.3622)"><path d="m 25 1006.36 c -12.703 0 -23 10.298 -23 23 0 6.367 2.601 12.12 6.781 16.281 4.085 3.712 9.514 5.969 15.469 5.969 12.703 0 23 -10.297 23 -23 0 -5.954 -2.256 -11.384 -5.969 -15.469 -4.165 -4.181 -9.914 -6.781 -16.281 -6.781 z m 16.281 6.781 c 3.854 4.113 6.219 9.637 6.219 15.719 0 12.703 -10.297 23 -23 23 -6.081 0 -11.606 -2.364 -15.719 -6.219 4.16 4.144 9.883 6.719 16.219 6.719 12.703 0 23 -10.297 23 -23 0 -6.335 -2.575 -12.06 -6.719 -16.219 z" opacity="0.05"/><path d="m 41.28 1013.14 c 3.712 4.085 5.969 9.514 5.969 15.469 0 12.703 -10.297 23 -23 23 -5.954 0 -11.384 -2.256 -15.469 -5.969 4.113 3.854 9.637 6.219 15.719 6.219 12.703 0 23 -10.297 23 -23 0 -6.081 -2.364 -11.606 -6.219 -15.719 z" opacity="0.1"/><path transform="matrix(15.333333,0,0,11.5,415.24999,879.11222)" d="m -24 13 a 1.5 2 0 1 1 -3 0 1.5 2 0 1 1 3 0 z" opacity="0.2"/></g></g><g><g transform="translate(0,-1004.3622)"><path d="m -24 13 c 0 1.105 -0.672 2 -1.5 2 -0.828 0 -1.5 -0.895 -1.5 -2 0 -1.105 0.672 -2 1.5 -2 0.828 0 1.5 0.895 1.5 2 z" transform="matrix(15.333333,0,0,11.5,414.99999,878.8622)" fill="#a5ce4c"/></g></g><g><path d="m 47 24 c 0 12.703 -10.297 23 -23 23 -12.703 0 -23 -10.297 -23 -23 0 -12.703 10.297 -23 23 -23 12.703 0 23 10.297 23 23 z" opacity="0.15" fill="url(#1)"/></g><g><g clip-path="url(#clipPath-168246905)"><g transform="translate(0,1)"><g opacity="0.1"><!-- color: #a5ce4c --><g><path d="m 6.105 8.215 c -0.147 -0.062 -0.187 -0.278 -0.007 -0.464 c 0.182 -0.186 0.585 -0.342 1.025 -0.536 c 0.44 -0.194 0.914 -0.428 1.229 -0.418 c 0.315 0.01 0.585 0.302 0.613 0.679 c 0.026 0.376 -0.06 0.875 -0.162 1.231 c -0.103 0.356 -0.115 0.53 -0.254 0.593 c -0.14 0.063 -0.394 0.093 -0.386 -0.243 c 0.009 -0.335 0.149 -1.01 0.194 -1.301 c 0.046 -0.29 -0.146 -0.312 -0.302 -0.269 c -0.155 0.043 -0.368 0.126 -0.595 0.232 c -0.227 0.106 -0.47 0.237 -0.714 0.349 c -0.246 0.112 -0.496 0.207 -0.641 0.146" transform="matrix(3.543307,0,0,3.543307,0,0)" stroke-opacity="1" fill="#000" fill-rule="nonzero" stroke="#2d2d2d" stroke-linejoin="miter" fill-opacity="1" stroke-linecap="butt" stroke-width="0.213" stroke-miterlimit="4"/><path d="m 6.734 4.722 c -0.486 0.391 -0.916 0.885 -1.233 1.358 c -0.317 0.472 -0.521 0.922 -0.642 1.327 c -0.121 0.405 -0.159 0.765 -0.084 1.119 c 0.075 0.354 0.262 0.701 0.588 0.826 c 0.325 0.125 0.787 0.028 1.175 -0.119 c 0.387 -0.144 0.699 -0.337 0.912 -0.648 c 0.212 -0.311 0.325 -0.74 0.466 -0.912 c 0.142 -0.172 0.312 -0.086 0.337 0.176 c 0.025 0.261 -0.096 0.699 -0.281 1.029 c -0.185 0.33 -0.434 0.55 -0.771 0.736 c -0.335 0.185 -0.756 0.336 -1.18 0.4 c -0.422 0.064 -0.848 0.04 -1.178 -0.127 c -0.331 -0.165 -0.569 -0.472 -0.684 -0.94 c -0.115 -0.469 -0.106 -1.098 0.037 -1.699 c 0.144 -0.602 0.423 -1.174 0.889 -1.757 c 0.467 -0.583 1.121 -1.176 1.683 -1.526 c 0.562 -0.351 1.033 -0.456 1.406 -0.471 c 0.374 -0.013 0.648 0.063 0.862 0.184 c 0.215 0.121 0.369 0.284 0.4 0.427 c 0.031 0.143 -0.06 0.267 -0.269 0.205 c -0.208 -0.062 -0.532 -0.308 -0.969 -0.287 c -0.434 0.02 -0.981 0.308 -1.467 0.697" transform="matrix(3.543307,0,0,3.543307,0,0)" stroke-opacity="1" fill="#000" fill-rule="evenodd" stroke="#2d2d2d" stroke-linejoin="miter" fill-opacity="1" stroke-linecap="butt" stroke-width="0.213" stroke-miterlimit="4"/><path d="m 6.734 4.722 c -0.486 0.391 -0.994 0.885 -1.311 1.358 c -0.316 0.472 -0.508 0.884 -0.628 1.289 c -0.12 0.406 -0.131 0.842 -0.056 1.196 c 0.075 0.354 0.249 0.728 0.573 0.852 c 0.325 0.125 0.867 0.014 1.253 -0.132 c 0.387 -0.144 0.674 -0.389 0.886 -0.7 c 0.212 -0.311 0.206 -0.714 0.348 -0.885 c 0.142 -0.172 0.43 -0.112 0.455 0.15 c 0.025 0.261 -0.096 0.699 -0.281 1.029 c -0.185 0.33 -0.434 0.55 -0.771 0.736 c -0.335 0.185 -0.756 0.336 -1.18 0.4 c -0.422 0.064 -0.768 0.065 -1.1 -0.1 c -0.331 -0.166 -0.659 -0.589 -0.774 -1.056 c -0.116 -0.469 -0.132 -0.957 0.01 -1.558 c 0.144 -0.601 0.463 -1.225 0.928 -1.808 c 0.467 -0.583 1.121 -1.176 1.683 -1.526 c 0.562 -0.351 1.033 -0.456 1.406 -0.471 c 0.374 -0.014 0.648 0.063 0.862 0.184 c 0.215 0.121 0.416 0.293 0.446 0.437 c 0.031 0.142 -0.134 0.356 -0.343 0.294 c -0.208 -0.061 -0.496 -0.369 -0.933 -0.349 c -0.434 0.02 -0.99 0.27 -1.477 0.66" transform="matrix(3.543307,0,0,3.543307,0,0)" stroke-opacity="1" fill="#000" fill-rule="nonzero" stroke="#2d2d2d" stroke-linejoin="miter" fill-opacity="1" stroke-linecap="butt" stroke-width="0.213" stroke-miterlimit="4"/></g></g></g></g></g><g><g clip-path="url(#clipPath-181500946)"><!-- color: #a5ce4c --><g><path d="m 6.105 8.215 c -0.147 -0.062 -0.187 -0.278 -0.007 -0.464 c 0.182 -0.186 0.585 -0.342 1.025 -0.536 c 0.44 -0.194 0.914 -0.428 1.229 -0.418 c 0.315 0.01 0.585 0.302 0.613 0.679 c 0.026 0.376 -0.06 0.875 -0.162 1.231 c -0.103 0.356 -0.115 0.53 -0.254 0.593 c -0.14 0.063 -0.394 0.093 -0.386 -0.243 c 0.009 -0.335 0.149 -1.01 0.194 -1.301 c 0.046 -0.29 -0.146 -0.312 -0.302 -0.269 c -0.155 0.043 -0.368 0.126 -0.595 0.232 c -0.227 0.106 -0.47 0.237 -0.714 0.349 c -0.246 0.112 -0.496 0.207 -0.641 0.146" transform="matrix(3.543307,0,0,3.543307,0,0)" stroke-opacity="1" fill="#d64936" fill-rule="nonzero" stroke="#2d2d2d" stroke-linejoin="miter" fill-opacity="1" stroke-linecap="butt" stroke-width="0.213" stroke-miterlimit="4"/><path d="m 6.734 4.722 c -0.486 0.391 -0.916 0.885 -1.233 1.358 c -0.317 0.472 -0.521 0.922 -0.642 1.327 c -0.121 0.405 -0.159 0.765 -0.084 1.119 c 0.075 0.354 0.262 0.701 0.588 0.826 c 0.325 0.125 0.787 0.028 1.175 -0.119 c 0.387 -0.144 0.699 -0.337 0.912 -0.648 c 0.212 -0.311 0.325 -0.74 0.466 -0.912 c 0.142 -0.172 0.312 -0.086 0.337 0.176 c 0.025 0.261 -0.096 0.699 -0.281 1.029 c -0.185 0.33 -0.434 0.55 -0.771 0.736 c -0.335 0.185 -0.756 0.336 -1.18 0.4 c -0.422 0.064 -0.848 0.04 -1.178 -0.127 c -0.331 -0.165 -0.569 -0.472 -0.684 -0.94 c -0.115 -0.469 -0.106 -1.098 0.037 -1.699 c 0.144 -0.602 0.423 -1.174 0.889 -1.757 c 0.467 -0.583 1.121 -1.176 1.683 -1.526 c 0.562 -0.351 1.033 -0.456 1.406 -0.471 c 0.374 -0.013 0.648 0.063 0.862 0.184 c 0.215 0.121 0.369 0.284 0.4 0.427 c 0.031 0.143 -0.06 0.267 -0.269 0.205 c -0.208 -0.062 -0.532 -0.308 -0.969 -0.287 c -0.434 0.02 -0.981 0.308 -1.467 0.697" transform="matrix(3.543307,0,0,3.543307,0,0)" stroke-opacity="1" fill="#d64936" fill-rule="evenodd" stroke="#2d2d2d" stroke-linejoin="miter" fill-opacity="1" stroke-linecap="butt" stroke-width="0.213" stroke-miterlimit="4"/><path d="m 6.734 4.722 c -0.486 0.391 -0.994 0.885 -1.311 1.358 c -0.316 0.472 -0.508 0.884 -0.628 1.289 c -0.12 0.406 -0.131 0.842 -0.056 1.196 c 0.075 0.354 0.249 0.728 0.573 0.852 c 0.325 0.125 0.867 0.014 1.253 -0.132 c 0.387 -0.144 0.674 -0.389 0.886 -0.7 c 0.212 -0.311 0.206 -0.714 0.348 -0.885 c 0.142 -0.172 0.43 -0.112 0.455 0.15 c 0.025 0.261 -0.096 0.699 -0.281 1.029 c -0.185 0.33 -0.434 0.55 -0.771 0.736 c -0.335 0.185 -0.756 0.336 -1.18 0.4 c -0.422 0.064 -0.768 0.065 -1.1 -0.1 c -0.331 -0.166 -0.659 -0.589 -0.774 -1.056 c -0.116 -0.469 -0.132 -0.957 0.01 -1.558 c 0.144 -0.601 0.463 -1.225 0.928 -1.808 c 0.467 -0.583 1.121 -1.176 1.683 -1.526 c 0.562 -0.351 1.033 -0.456 1.406 -0.471 c 0.374 -0.014 0.648 0.063 0.862 0.184 c 0.215 0.121 0.416 0.293 0.446 0.437 c 0.031 0.142 -0.134 0.356 -0.343 0.294 c -0.208 -0.061 -0.496 -0.369 -0.933 -0.349 c -0.434 0.02 -0.99 0.27 -1.477 0.66" transform="matrix(3.543307,0,0,3.543307,0,0)" stroke-opacity="1" fill="#d64936" fill-rule="nonzero" stroke="#2d2d2d" stroke-linejoin="miter" fill-opacity="1" stroke-linecap="butt" stroke-width="0.213" stroke-miterlimit="4"/></g></g></g><g><path d="m 40.03 7.531 c 3.712 4.084 5.969 9.514 5.969 15.469 0 12.703 -10.297 23 -23 23 c -5.954 0 -11.384 -2.256 -15.469 -5.969 4.178 4.291 10.01 6.969 16.469 6.969 c 12.703 0 23 -10.298 23 -23 0 -6.462 -2.677 -12.291 -6.969 -16.469 z" opacity="0.1"/></g></svg>
